svg/logo/wechat_miniprogram_fill.svg

<?xml version="1.0" encoding="UTF-8"?>
<svg width="24px" height="24px" viewBox="0 0 24 24" version="1.1" xmlns="http://www.w3.org/2000/svg" xmlns:xlink="http://www.w3.org/1999/xlink">
    <title>wechat_miniprogram_fill</title>
    <g id="Icon" stroke="none" stroke-width="1" fill="none" fill-rule="evenodd">
        <g id="Logo" transform="translate(-240.000000, -336.000000)">
            <g id="wechat_miniprogram_fill" transform="translate(240.000000, 336.000000)">
                <path d="M24,0 L24,24 L0,24 L0,0 L24,0 Z M12.5935,23.2578 L12.5819,23.2595 L12.5109,23.295 L12.4919,23.2987 L12.4767,23.295 L12.4057,23.2595 C12.3958,23.2564 12.387,23.259 12.3821,23.2649 L12.378,23.2758 L12.3609,23.7031 L12.3659,23.7235 L12.3769,23.7357 L12.4805,23.8097 L12.4953,23.8136 L12.5071,23.8097 L12.6107,23.7357 L12.6233,23.7197 L12.6267,23.7031 L12.6096,23.2758 C12.6076,23.2657 12.601,23.2593 12.5935,23.2578 Z M12.8584,23.1453 L12.8445,23.1473 L12.6598,23.2397 L12.6499,23.2499 L12.6472,23.2611 L12.6651,23.6906 L12.6699,23.7034 L12.6784,23.7105 L12.8793,23.8032 C12.8914,23.8069 12.9022,23.803 12.9078,23.7952 L12.9118,23.7812 L12.8777,23.1665 C12.8753,23.1546 12.8674,23.147 12.8584,23.1453 Z M12.143,23.1473 C12.1332,23.1424 12.1222,23.1453 12.1156,23.1526 L12.1099,23.1665 L12.0758,23.7812 C12.0751,23.7927 12.0828,23.8019 12.0926,23.8046 L12.1083,23.8032 L12.3092,23.7105 L12.3186,23.7024 L12.3225,23.6906 L12.3404,23.2611 L12.3372,23.2485 L12.3278,23.2397 L12.143,23.1473 Z" id="MingCute" fill-rule="nonzero"></path>
                <path d="M12,22 C17.5228,22 22,17.5228 22,12 C22,6.47715 17.5228,2 12,2 C6.47715,2 2,6.47715 2,12 C2,17.5228 6.47715,22 12,22 Z M17.1649,7.2654 C16.3523,6.45282 15.1874,6.10011 14.0605,6.32548 L13.943,6.34898 C12.2318,6.69123 11,8.19373 11,9.93884 L11,14.0612 C11,14.853 10.4412,15.5346 9.66479,15.6899 L9.54725,15.7134 C9.07613,15.8076 8.58908,15.6602 8.24934,15.3204 C7.51987,14.591 7.77392,13.3533 8.73176,12.9701 L8.83586,12.9285 C9.34864,12.7234 9.59806,12.1414 9.39294,11.6286 C9.18783,11.1158 8.60586,10.8664 8.09308,11.0715 L7.98898,11.1132 C5.698,12.0296 5.09037,14.9899 6.83513,16.7346 C7.64771,17.5472 8.81264,17.8999 9.93949,17.6746 L10.057,17.6511 C11.7682,17.3088 13,15.8063 13,14.0612 L13,9.93884 C13,9.1471 13.5588,8.46542 14.3352,8.31014 L14.4527,8.28664 C14.9239,8.19241 15.4109,8.33988 15.7507,8.67961 C16.4801,9.40908 16.2261,10.6468 15.2682,11.0299 L15.1641,11.0715 C14.6514,11.2767 14.4019,11.8586 14.6071,12.3714 C14.8122,12.8842 15.3941,13.1336 15.9069,12.9285 L16.011,12.8869 C18.302,11.9705 18.9096,9.01016 17.1649,7.2654 Z" id="形状" fill="#09244B"></path>
            </g>
        </g>
    </g>
</svg>

<svg xmlns="http://www.w3.org/2000/svg" width="24" height="24"><g fill="none" fill-rule="evenodd"><path d="M24 0v24H0V0h24ZM12.594 23.258l-.012.002-.071.035-.02.004-.014-.004-.071-.036c-.01-.003-.019 0-.024.006l-.004.01-.017.428.005.02.01.013.104.074.015.004.012-.004.104-.074.012-.016.004-.017-.017-.427c-.002-.01-.009-.017-.016-.018Zm.264-.113-.014.002-.184.093-.01.01-.003.011.018.43.005.012.008.008.201.092c.012.004.023 0 .029-.008l.004-.014-.034-.614c-.003-.012-.01-.02-.02-.022Zm-.715.002a.023.023 0 0 0-.027.006l-.006.014-.034.614c0 .012.007.02.017.024l.015-.002.201-.093.01-.008.003-.011.018-.43-.003-.012-.01-.01-.184-.092Z"/><path fill="#09244B" d="M12 22c5.523 0 10-4.477 10-10S17.523 2 12 2 2 6.477 2 12s4.477 10 10 10Zm5.165-14.735a3.437 3.437 0 0 0-3.104-.94l-.118.024A3.661 3.661 0 0 0 11 9.939v4.122a1.66 1.66 0 0 1-1.335 1.629l-.118.023a1.437 1.437 0 0 1-.815-2.743l.104-.042a1 1 0 0 0-.743-1.857l-.104.042c-2.291.917-2.899 3.877-1.154 5.622a3.437 3.437 0 0 0 3.104.94l.118-.024A3.661 3.661 0 0 0 13 14.061V9.94a1.66 1.66 0 0 1 1.335-1.629l.118-.023a1.437 1.437 0 0 1 .815 2.743l-.104.042a1 1 0 0 0 .743 1.857l.104-.042c2.291-.917 2.899-3.877 1.154-5.622Z"/></g></svg>
